images/home.svg

<svg width="22" height="23" viewBox="0 0 22 23" fill="none" xmlns="http://www.w3.org/2000/svg">
<path fill-rule="evenodd" clip-rule="evenodd" d="M9.96575 0.0967527C9.83709 0.155103 9.66814 0.245871 9.5903 0.298458C9.51246 0.351046 7.39964 2.60848 4.8951 5.31494C1.32083 9.17746 0.319173 10.2842 0.237951 10.4609C0.181008 10.5848 0.104208 10.7961 0.0672471 10.9306C0.0302445 11.0651 0 11.3096 0 11.474C0 11.6383 0.0299525 11.8828 0.0665379 12.0173C0.103165 12.1518 0.189977 12.3778 0.259477 12.5196C0.329018 12.6613 0.486498 12.8799 0.609437 13.0055C0.739509 13.1382 0.965821 13.3018 1.15058 13.3964C1.4318 13.5406 1.5154 13.5616 1.88125 13.5807L2.29441 13.6021V17.2336C2.29441 20.3044 2.304 20.9047 2.35653 21.1224C2.39069 21.2639 2.4778 21.5063 2.55005 21.6609C2.6314 21.8348 2.79451 22.0638 2.9781 22.2616C3.19511 22.4955 3.35877 22.6242 3.58762 22.7412C3.7597 22.8292 3.99999 22.9235 4.12155 22.9506C4.2631 22.9822 5.02634 23 6.24342 23C8.09543 23 8.1482 22.9976 8.29967 22.9057C8.38515 22.8539 8.49098 22.7475 8.53479 22.6693C8.6105 22.5344 8.61551 22.3788 8.63532 19.5557C8.65456 16.8136 8.66198 16.5716 8.73111 16.4217C8.77232 16.3324 8.86618 16.1925 8.93969 16.1109C9.01319 16.0292 9.15782 15.9199 9.26107 15.868C9.43803 15.7791 9.51801 15.7737 10.6586 15.7737C11.7291 15.7737 11.891 15.7832 12.0653 15.8558C12.1894 15.9074 12.3294 16.0182 12.4433 16.1551C12.5429 16.2746 12.6467 16.4528 12.6739 16.551C12.71 16.6809 12.7235 17.5083 12.7235 19.5805C12.7235 22.3393 12.7263 22.4373 12.807 22.6173C12.8602 22.7358 12.9492 22.839 13.0525 22.9017C13.2127 22.9988 13.2376 23 15.1279 22.9993C16.6674 22.9988 17.0922 22.9857 17.3024 22.9322C17.446 22.8957 17.6806 22.802 17.8238 22.724C17.9845 22.6365 18.1976 22.4597 18.3808 22.2621C18.5605 22.0681 18.7278 21.8341 18.8054 21.6682C18.8758 21.5176 18.9628 21.2716 18.9989 21.1214C19.0559 20.8842 19.0645 20.3726 19.0645 17.2192V13.5901L19.3669 13.589C19.5333 13.5884 19.7517 13.5674 19.8523 13.5424C19.9529 13.5173 20.1406 13.4421 20.2694 13.3753C20.3998 13.3076 20.6197 13.1301 20.7651 12.975C20.9414 12.7872 21.0705 12.5963 21.1614 12.3891C21.2927 12.0899 21.2963 12.0657 21.2963 11.474C21.2963 10.8804 21.2931 10.8588 21.1589 10.551C21.0274 10.2494 20.8238 10.0226 16.4241 5.27603C12.301 0.828025 11.7986 0.300889 11.5555 0.16735C11.2959 0.02476 11.2612 0.0178264 10.742 0.00454446C10.2497 -0.00806213 10.1781 0.000447311 9.96575 0.0967527Z" fill="white"/>
</svg>

<svg width="22" height="23" fill="none" xmlns="http://www.w3.org/2000/svg"><path fill-rule="evenodd" clip-rule="evenodd" d="M9.966.097a3.212 3.212 0 0 0-.376.201c-.078.053-2.19 2.31-4.695 5.017C1.321 9.177.32 10.285.238 10.46a3.72 3.72 0 0 0-.17.47 2.479 2.479 0 0 0-.068.543c0 .164.03.409.067.543.036.135.123.36.192.503.07.141.227.36.35.486.13.132.357.296.542.39.28.145.364.166.73.185l.413.021v3.632c0 3.07.01 3.67.063 3.888.034.142.12.384.193.539.081.174.245.403.428.6.217.235.38.363.61.48.172.088.412.183.534.21.141.031.904.049 2.121.049 1.852 0 1.905-.002 2.057-.094a.778.778 0 0 0 .235-.237c.075-.135.08-.29.1-3.113.02-2.742.027-2.984.096-3.134.041-.09.135-.23.209-.311.073-.082.218-.191.321-.243.177-.089.257-.094 1.398-.094 1.07 0 1.232.01 1.406.082.124.051.264.162.378.3.1.119.204.297.23.395.037.13.05.957.05 3.03 0 2.758.003 2.856.084 3.036a.646.646 0 0 0 .245.285c.16.097.186.098 2.076.097 1.54 0 1.964-.013 2.174-.067.144-.036.379-.13.522-.208a2.46 2.46 0 0 0 .557-.462c.18-.194.347-.428.424-.594.07-.15.158-.396.194-.547.057-.237.066-.748.066-3.902V13.59l.302-.001c.166 0 .385-.022.485-.047.1-.025.289-.1.417-.167.13-.067.35-.245.496-.4a2.07 2.07 0 0 0 .396-.586c.132-.3.135-.323.135-.915 0-.594-.003-.615-.137-.923-.132-.302-.335-.528-4.735-5.275C12.301.828 11.8.301 11.556.167c-.26-.142-.295-.15-.814-.162-.492-.013-.564-.005-.776.092Z" fill="#fff"/></svg>
